docs/img/logo_apple.svg

<?xml version="1.0" encoding="UTF-8" standalone="no"?>
<svg width="800px" height="800px" viewBox="-1.5 0 20 20" version="1.1" xmlns="http://www.w3.org/2000/svg" xmlns:xlink="http://www.w3.org/1999/xlink">
    
    <title>apple [#173]</title>
    <desc>Created with Sketch.</desc>
    <defs>

</defs>
    <g id="Page-1" stroke="none" stroke-width="1" fill="none" fill-rule="evenodd">
        <g id="Dribbble-Light-Preview" transform="translate(-102.000000, -7439.000000)" fill="#000000">
            <g id="icons" transform="translate(56.000000, 160.000000)">
                <path d="M57.5708873,7282.19296 C58.2999598,7281.34797 58.7914012,7280.17098 58.6569121,7279 C57.6062792,7279.04 56.3352055,7279.67099 55.5818643,7280.51498 C54.905374,7281.26397 54.3148354,7282.46095 54.4735932,7283.60894 C55.6455696,7283.69593 56.8418148,7283.03894 57.5708873,7282.19296 M60.1989864,7289.62485 C60.2283111,7292.65181 62.9696641,7293.65879 63,7293.67179 C62.9777537,7293.74279 62.562152,7295.10677 61.5560117,7296.51675 C60.6853718,7297.73474 59.7823735,7298.94772 58.3596204,7298.97372 C56.9621472,7298.99872 56.5121648,7298.17973 54.9134635,7298.17973 C53.3157735,7298.17973 52.8162425,7298.94772 51.4935978,7298.99872 C50.1203933,7299.04772 49.0738052,7297.68074 48.197098,7296.46676 C46.4032359,7293.98379 45.0330649,7289.44985 46.8734421,7286.3899 C47.7875635,7284.87092 49.4206455,7283.90793 51.1942837,7283.88393 C52.5422083,7283.85893 53.8153044,7284.75292 54.6394294,7284.75292 C55.4635543,7284.75292 57.0106846,7283.67793 58.6366882,7283.83593 C59.3172232,7283.86293 61.2283842,7284.09893 62.4549652,7285.8199 C62.355868,7285.8789 60.1747177,7287.09489 60.1989864,7289.62485" id="apple-[#173]">

</path>
            </g>
        </g>
    </g>
</svg>

<?xml version="1.0" encoding="UTF-8" standalone="no"?>
<svg
   width="21.250021"
   height="24.999998"
   viewBox="-1.5 0 0.53125052 0.62499995"
   version="1.1"
   id="svg1"
   sodipodi:docname="logo_apple.svg"
   inkscape:version="1.4 (e7c3feb1, 2024-10-09)"
   xmlns:inkscape="http://www.inkscape.org/namespaces/inkscape"
   xmlns:sodipodi="http://sodipodi.sourceforge.net/DTD/sodipodi-0.dtd"
   xmlns="http://www.w3.org/2000/svg"
   xmlns:svg="http://www.w3.org/2000/svg"
   xmlns:rdf="http://www.w3.org/1999/02/22-rdf-syntax-ns#"
   xmlns:cc="http://creativecommons.org/ns#"
   xmlns:dc="http://purl.org/dc/elements/1.1/">
  <sodipodi:namedview
     id="namedview1"
     pagecolor="#ffffff"
     bordercolor="#000000"
     borderopacity="0.25"
     inkscape:showpageshadow="2"
     inkscape:pageopacity="0.0"
     inkscape:pagecheckerboard="0"
     inkscape:deskcolor="#d1d1d1"
     inkscape:zoom="0.91125"
     inkscape:cx="339.64335"
     inkscape:cy="400"
     inkscape:window-width="1904"
     inkscape:window-height="1162"
     inkscape:window-x="0"
     inkscape:window-y="25"
     inkscape:window-maximized="0"
     inkscape:current-layer="svg1" />
  <title
     id="title1">apple [#173]</title>
  <desc
     id="desc1">Created with Sketch.</desc>
  <defs
     id="defs1" />
  <g
     id="Page-1"
     stroke="none"
     stroke-width="32"
     fill="none"
     fill-rule="evenodd"
     transform="matrix(0.03125003,0,0,0.03125003,-1.5,0)">
    <g
       id="Dribbble-Light-Preview"
       transform="translate(-102,-7439)"
       fill="#000000"
       style="stroke-width:32">
      <g
         id="icons"
         transform="translate(56,160)"
         style="stroke-width:32">
        <path
           d="m 57.570887,7282.193 c 0.729073,-0.845 1.220514,-2.022 1.086025,-3.193 -1.050633,0.04 -2.321707,0.671 -3.075048,1.515 -0.67649,0.749 -1.267029,1.9459 -1.108271,3.0939 1.171977,0.087 2.368222,-0.57 3.097294,-1.4159 m 2.628099,7.4318 c 0.02933,3.027 2.770678,4.034 2.801014,4.047 -0.02225,0.071 -0.437848,1.435 -1.443988,2.8449 -0.87064,1.218 -1.773639,2.431 -3.196392,2.457 -1.397473,0.025 -1.847455,-0.794 -3.446157,-0.794 -1.59769,0 -2.09722,0.768 -3.419865,0.819 -1.373205,0.049 -2.419793,-1.318 -3.2965,-2.5319 -1.793862,-2.483 -3.164033,-7.017 -1.323656,-10.0769 0.914121,-1.519 2.547203,-2.482 4.320842,-2.506 1.347924,-0.025 2.62102,0.869 3.445145,0.869 0.824125,0 2.371256,-1.075 3.997259,-0.917 0.680535,0.027 2.591696,0.263 3.818277,1.984 -0.0991,0.059 -2.280247,1.275 -2.255979,3.8049"
           id="apple-[#173]"
           style="stroke-width:32" />
      </g>
    </g>
  </g>
  <metadata
     id="metadata1">
    <rdf:RDF>
      <cc:Work
         rdf:about="">
        <dc:title>apple [#173]</dc:title>
      </cc:Work>
    </rdf:RDF>
  </metadata>
</svg>
